X:1
T:The Carraroe
R:jig
M:6/8
L:1/8
K:D
|:DED F2A|dfe d2A|BAF Adf|afd e2f|
|DED F2A|dfe d2A|BdB AFA|1 dAF EFE:|2 dAF E2D|]
|:dfa afa|bge edB|dfa afa|bge e2e|
|dfa afa|bge edB|d2B AFA|1 dAF E2D:|2 dAF EFE|]